X: 36365
T: Sean McGovern's
R: polka
M: 2/4
K: Dmajor
|:c>B|AD FA|GF EF/G/|AD FA|d2 c>B|
AD FA|GF E>d|c/B/A Bc|d2:|
|:d>e|fd gf|ec A>e|fd gf|e2 d>e|
fd gf|ec A>B|1 c/B/A Bc|d2:|2 c/B/A GE|D2||

